packages/components/Atoms/Icon/assets/img/rpl_icon_document.svg

<svg width="12" height="16" viewBox="0 0 12 16" overflow="visible" xmlns="http://www.w3.org/2000/svg">
  <path d="M7 4.25V0H0.75C0.334375 0 0 0.334375 0 0.75V15.25C0 15.6656 0.334375 16 0.75 16H11.25C11.6656 16 12 15.6656 12 15.25V5H7.75C7.3375 5 7 4.6625 7 4.25ZM12 3.80938V4H8V0H8.19063C8.39063 0 8.58125 0.078125 8.72188 0.21875L11.7812 3.28125C11.9219 3.42188 12 3.6125 12 3.80938Z"
    fill="inherit" />
</svg>

<svg width="12" height="16" overflow="visible" xmlns="http://www.w3.org/2000/svg"><path d="M7 4.25V0H.75A.748.748 0 000 .75v14.5c0 .416.334.75.75.75h10.5c.416 0 .75-.334.75-.75V5H7.75A.752.752 0 017 4.25zm5-.44V4H8V0h.19c.2 0 .391.078.532.219l3.06 3.062c.14.14.218.331.218.528z" fill="inherit"/></svg>
